build/images/icons/sort-icon-3.svg

<svg width="20" height="20" viewBox="0 0 20 20" fill="none" xmlns="http://www.w3.org/2000/svg">
<path d="M16.9997 8.52488C16.9997 7.9526 16.5517 7.48879 15.9989 7.48879C15.4464 7.48879 14.9981 7.9526 14.9981 8.52488V10.4624L10.0149 5.30327C9.82694 5.10901 9.57257 5 9.30698 5C9.04166 5 8.78703 5.10901 8.59937 5.30327L6.27508 7.70977L4.70869 6.08817C4.31775 5.68345 3.68415 5.68345 3.29321 6.08817C2.90226 6.4929 2.90226 7.14882 3.29321 7.55354L5.56747 9.90769C5.95841 10.3121 6.592 10.3121 6.98295 9.90742L9.30698 7.5012L13.5829 11.9278H11.711C11.1582 11.9278 10.7102 12.3916 10.7102 12.9639C10.7102 13.5362 11.1582 14 11.711 14H15.9992C16.5517 14 17 13.5359 17 12.9639L16.9997 8.52488Z" fill="#D9D9D9"/>
</svg>

<svg width="20" height="20" fill="none" xmlns="http://www.w3.org/2000/svg"><path d="M17 8.525c0-.572-.448-1.036-1.001-1.036-.553 0-1 .464-1 1.036v1.937l-4.984-5.159A.985.985 0 0 0 9.307 5a.984.984 0 0 0-.708.303L6.275 7.71 4.71 6.088a.977.977 0 0 0-1.416 0 1.062 1.062 0 0 0 0 1.466l2.274 2.354a.977.977 0 0 0 1.416 0L9.307 7.5l4.276 4.427H11.71c-.553 0-1 .464-1 1.036 0 .572.447 1.036 1 1.036h4.288c.553 0 1.001-.464 1.001-1.036v-4.44Z" fill="#D9D9D9"/></svg>
